!! 00000] TT[WS
!!!OTL: Rao wanwan
!!!ARE: Asia, China, Shanxi Yanbei
!! Ethnic Group: Han
!! WII, 180 (1)
!!!SCT: J0674
!!!YEM: Copyright 1995, estate of Helmut Schaffrath.
**kern
*ICvox
*Ivox
*M2/4
*k[]
*C:
{8cc
8a
4g
=1
8.cc
16dd
16ee
16ee
8ee
=2
8.dd
16cc
16dd
16ee
16dd
16cc
=3
4b
4r}
=4
{8cc
16cc
16a
4g
=5
8.cc
16dd
4ee
=6
8dd
8cc
16dd
16cc
8a
=7
2g}
==
!!!AGN: Xiaodiao. Fengsuge
!!!ONB: ESAC (Essen Associative Code) Database: CHINA
!!!AMT: simple duple
!!!AIN: vox
!!!EED: Helmut Schaffrath
!!!EEV: 1.0
*-
